X:209
T: LIEBEN BRUEDER WO KOMMT IHR HER
N: Z0208
O: Europa, Mitteleuropa, Deutschland, Anclam
R: Handwerker - Lied, Handwerks - Burschen
M: 3/4
L: 1/16
K: A
E2A2A2GABAGF | F2F2E4z4 |
A2c2c2Bcd2B2 | B2A2A4z4 |
E4E4E4A4 | F4F4F4B4
G4G4G4B4 | B4A4A4A2A2
E2A2A2GABAGF | F2F2E4z4 |
c2c2c2Bcd2G2 | B2A2A4z4

@@@ Tune index: 9967
